X:1
T:Title
%%score { ( 1 3 ) | ( 2 4 ) }
L:1/8
M:4/4
K:Bb
V:1 treble nm="Grand Piano"
V:3 treble 
V:2 bass 
V:4 bass 
V:1
 z4 z2[Q:1/4=100] F2 | .d2 z2 z4 | [EF]2 [EA]2 [DB]2 c2 | d2 c2 d2 [FB]2 | c6 F2 | %5
 .[Fd]2 .[B,FB]2 [B,EG]2 [Ec]2 | F2 A2 B2 d2 | c2 [Af]2 [FA]2 [=EG]2 |[M:3/4] F6 |[M:3/8] F3 | %10
[M:4/4] [DF][DF][DF][DF] [DF]2 z2 | GGGG G2 z2 | [DF]2 z2 BdcB |[M:3/4] c6 |[M:1/4] F2 | %15
[M:4/4] [Fd]4 z4 | [GB]4 z4 | F3 c cBBA | [DB]6 z2 |] %19
V:2
 z4 z2 F,2 | [B,,B,]2 [D,B,E]2 [E,B,E]2 [C,G,]2 | [F,A,]2 [F,C]2 [B,,B,]2[K:treble] [F,A,F]2 | %3
 [B,F]2 [F,A,F]2 [B,F]2[K:bass] [D,B,]2 | [F,A,F]6 [F,A,]2 | %5
 z[K:treble] c z A[K:bass] E,2 [C,G,]2 | [F,A,E]2 [F,CE]2 [G,B,D]2[K:treble] [G,B,G]2 | %7
 [A,CF]2[K:bass] [F,C]2 [C,C]2 [C,B,]2 |[M:3/4] [F,A,]6 |[M:3/8] [F,A,E]3 | %10
[M:4/4] [B,,B,][B,,B,][B,,B,][B,,B,] [B,,B,]2 z2 | [E,B,E][E,B,E][E,B,E][E,B,E] [E,B,E]2 z2 | %12
 [B,,B,]2 z2[K:treble] [G,B,F][G,B,F][G,B,=E][G,B,E] |[M:3/4] [F,A,F]6 |[M:1/4][K:bass] [F,A,]2 | %15
[M:4/4] [B,,B,]B,,B,,[B,,B,] z E D2 | E,E,E,E, z F [E,B,E]2 | %17
 [F,A,C]3 [F,A,E] [F,A,E][F,B,D][F,DF][F,CE] | [B,,B,]6 z2 |] %19
V:3
 x8 | F-[Fc]BA G2 [Ec]2 | x8 | x8 | x8 | x8 | x8 | x8 |[M:3/4] x6 |[M:3/8] x3 |[M:4/4] x8 | x8 | %12
 x8 |[M:3/4] x6 |[M:1/4] x2 |[M:4/4] z B,B,[Fd] [Fd]c B2 | B,B,B,[B,GB] [GB]A G2 | x8 | x8 |] %19
V:4
 x8 | x8 | x6[K:treble] x2 | x6[K:bass] x2 | x8 | [B,,B,]2[K:treble] D,2[K:bass] z4 | %6
 x6[K:treble] x2 | x2[K:bass] x6 |[M:3/4] x6 |[M:3/8] x3 |[M:4/4] x8 | x8 | x4[K:treble] x4 | %13
[M:3/4] x6 |[M:1/4][K:bass] x2 |[M:4/4] z4 [B,,B,]2 z2 | z4 [E,B,]2 z2 | x8 | x8 |] %19

